X:0637
T:MacGregor Aruaro.
M:3/4
L:1/8
Q:1/4=80 "Slow"
I: ||
Z:Jack Campin * www.campin.me.uk * 2009
K:D
A>B|d2 d2 (Te2{de})|f2 A2 A>B|d2 d2  e2|f2 A2 D/F/A|f2 f2 a>f|fe d2 cB|A2 F>EF>A     | B2 D2
AB |d2 d2  Te2     |f2 A2 A>F|d2 d2 Te2|f2 A2 D/F/A|f2 f2 af |e2 d2 B2|d2 FE`FA      | B2 D2
AB |d2 d2  Te2     |f2 A2 A>B|d2 d2 Te2|f2 A2 D/F/A|f2 f2 a>f|e2 d2 dB|A2 F2 A>F     | E2 D2
                                              D/F/A|f2 f2 af |e2 d2 cB|A2 FA G/F/E/D/|Te2 D2|]
<end>
<start>
